X:1
T:Hommes expers
T:Antoine Cartier
T:Source : Livre X de 26 chansons nouvelles à 4 parties---Paris---N.du Chemin---1552. Editor : André Vierendeels (17/04/18) Notes : Original clefs : C1, C3, C3, F3 Original note values have been halved Editorial accidentals above the staff 
T:Hommes expers
T:©
T:©
T:©
T:©
C:Antoine Cartier
Z:©
%%score [ 1 [ 2 3 ] 4 ]
L:1/8
Q:1/4=120
M:2/2
K:F
V:1 treble nm="Soprano" snm="S"
V:2 treble-8 nm="Tenor 1" snm="T 1"
V:3 treble-8 nm="Tenor 2" snm="T 2"
V:4 bass nm="Bass" snm="B"
V:1
 F8 | A4 G4 | G4 z2 D2 | F2 F2 C2 C2 | GFGA B2 A2- |"^#" A2 G4 F2 | G2 B2 B4 | B4 AGAB | %8
w: Hom-|mes ex-|pers, vous|dic- tes par sci-|en- * * * * *||ce, que Di-|a- n'est _ _ _|
w: Que|n'est la|Mort: mais|par ex- pe- ri-|en- * * * * *||ce, de ce|vous veult, _ _ _|
 c2 c2 B2 A2 | G2 F2 EDEF |[M:2/4] G2 F2 |1[M:2/2] F2 E2 F4 :|2 F2 E2 F4 || z2 A2 A2 A2 | %14
w: _ en bai- sant|beau- coup pi- * * *||* * re,|(di)- * re.|Car quand sa|
w: _ et vous puis|con- tre- di- * * *|||||
 B2 A2 G2 G2 | A3 B c2 c2 | B4 A2 c2 | B2 A2 G2 c2 | c2 B2 c3 B | AG A4 GF | G2 c2 c2 B2 | %21
w: bou- ch'en la mien-|ne _ _ sous-|pi- re, tou-|te vi- gueur de-|dans mon coeur _|_ _ _ _ _|* tou- te vi-|
w: |||||||
 c2 G2 A2 B2 | c2 d4 c2- |"^-natural" c2 B2 c4 |: z2 A2 A2 A2 | G2 c2 B3 A | G2 F2 G2 A2- | %27
w: gueur de- dans mon|coeur s'as- sem-|* * ble,|vous res- vez|donc: ou cer- *|te'il vous fault di-|
w: ||||||
 AGFE F4 | E2 G2 AGAB | c4 B4 | A3 G/F/ c4 | z2 C2 FEFG | A2 F2 F2 D2 | E2 F2 C2 F2- | %34
w: |re, qu'en la _ _ _|bai- sant,|_ _ _ _|mou- rir, _ _ _|_ mou- rir, vi-|vre me sem- *|
w: |||||||
 F2 E2 !fermata!F4 :| %35
w: * * ble.|
w: |
V:2
 c8 | f4 e4 | d8- | d4 A4 | c2 c2 F2 f2 | fedc d4 | d4 z2 g2 | f4 f4 | e2 f2 d2 f2 | edcB c4 | %10
w: Hom-|mes ex-|pers,|_ vous|dic- tes par sci-|en- * * * *|ce, que|Di- a-|n'est en bai- sant|beau- * * * *|
w: Que|n'est la|Mort:|_ mais|par ex- pe- ri-|en- * * * *|ce, de|ce vous|veult, et vous puis|con- * * * *|
[M:2/4] d2 B2 |1[M:2/2] c4 c4 :|2 c2 c2 c2 c2 || f4 e4 | z4 z2 c2 | c3 B A2 G2 | Bcde fe ed/c/ | %17
w: * coup|pi- re,|re. Car quand sa|bou- che|en|la mien- ne sous-|pi- * * * * * * * *|
w: tre- di-|||||||
 d4 e2 g2- | g2 f4 e2 | f8 | z2 c2 g4- | g2 g2 e2 g2 | a2 d2 a2 f2 | g4 e4 |: z2 f2 f2 f2 | %25
w: * re, tou-|* te vi-|gueur,|tou- te|_ vi- gueur de-|dans mon coeur s'as-|sem- ble,|vous res- vez|
w: ||||||||
 edef g4 | c2 d4 c2 | A6 B2 | c4 c2 f2 | edef g2 g2 | c2 c2 c2 c2 | e4 d4 | c4 z2 B2- | B2 c4 B2 | %34
w: donc: _ _ _ _|ou cer- te'il|vous fault|di- re, qu'en|la _ _ _ _ bai-|sant, qu'en la bai-|sant, mou-|rir, vi-|* vre me|
w: |||||||||
 c4 !fermata!c4 :| %35
w: sem- ble.|
w: |
V:3
 z8 | c8 | B4 B4 | A4 z2 c2 | _e2 e2 d2 d2 | cBBA/G/ A4 | G4 z2 d2 | d4 c4 | c4 z2 F2 | %9
w: |Hom-|mes ex-|pers, vous|dic- tes par sci-|en- * * * * *|ce, que|Di- a-|n'est en|
w: |Que|n'est la|Mort: mais|par ex- pe- ri-|en- * * * * *|ce, de|ce vous|veulx, et|
 G2 A2 GFGA |[M:2/4] BA AG/F/ |1[M:2/2] G4 F4 :|2 G4 F4 || z2 c2 c2 c2 | d2 d2 e2 e2 | f6 e2 | %16
w: bai- sant beau- * * *|coup _ _ _ _|pi- re,||Car quand sa|bou- ch'en la mien-|ne sous|
w: vous puis con- * * *|tre- * * * *||di- re.||||
 d4 c2 A2 | G2 F2 c4 | z2 F2 G2 G2 | A2 F2 c4- | c2 BA d2 d2 | c4 z2 d2 | e2 g2 fedc | d4 c4 |: %24
w: pi- re, tou-|te vi- gueur,|tou te vi|gueur de- dans|_ _ _ _ mon|coeur, de-|dans mon coeur _ _ s'as-|sem- ble,|
w: ||||||||
 z2 c2 d2 c2 | c3 B/A/ G2 G2- | G2 B4 A2 | F3 G A2 GF | G4 z2 c2 | c2 c2 dcde | f2 F2 A4 | G4 F4 | %32
w: vous res- vez|donc: _ _ _ ou|_ cer- te'il|vous fault di- * *|re, qu'en|la bai- sant, _ _ _|_ qu'en la|bai- sant,|
w: ||||||||
 z2 A2 d3 c | B2 A2 G2 F2 | G4 !fermata!F4 :| %35
w: mou- rir, vi-|vre me sem- *|* ble.|
w: |||
V:4
 F,8 | F,4 C,4 | G,8 | D,4 F,2 F,2 | C,2 C,2 D,3 E, | F,2 G,2 D,4 | G,2 G,2 G,4 | B,4 F,E,F,G, | %8
w: Hom-|mes ex-|pers,|vous dic- tes|par sci- en- *||ce, que Di-|a- n'est _ _ _|
w: Que|n'est la|Mort,|mais par ex-|pe- ri- en- *||ce, de ce|vous veult _ _ _|
 A,2 F,2 G,2 D,2 | E,2 F,2 C,4 |[M:2/4] B,,2 D,2 |1[M:2/2] C,4 F,4 :|2 C,4 z2 F,2 || %13
w: _ en bai- sant|beau- coup pi-||* re,|* Car|
w: _ et vous puis|con- tre- di-|||re. *|
 F,2 F,2 A,2 A,2 | G,2 F,2 C3 B, | A,G, F,4 C,2 | G,4 A,4 | z4 C,4 | C,2 D,2 C,2 C,2 | F,6 F,2 | %20
w: quand sa bou- ch'en|la mien- ne _|_ _ _ sous-|pi- re,|tou-|te vi- gueur de-|dans mon|
w: |||||||
 E,2 F,2 G,4 | C,2 C2 C2 B,2 | A,2 G,2 A,4 | G,4 C,4 |: z2 F,2 D,2 F,2 | C,2 C,2 _E,4- | %26
w: coeur s'as- sem-|ble, de- dans mon|coeur s'as- sem-|* ble,|vous res- vez|donc: ou cer-|
w: ||||||
 E,2 D,2 B,,2 C,2 | D,8 | C,4 z2 F,2 | A,4 G,4 | F,4 z2 C,2 | C,2 C,2 D,C,D,E, | F,4 D,2 G,2- | %33
w: * te'il vous fault|di-|re, qu'en|la bai-|sant, qu'en|la bai- sant, _ _ _|_ mou- rir,|
w: |||||||
 G,2 F,2 E,2 D,2 | C,4 !fermata!F,4 :| %35
w: _ vi- vre me|sem- ble.|
w: ||

